src/assets/icons/marker.svg

<svg widh="100%" height="100%" viewBox="0 0 24 24" fill="current"
  xmlns="http://www.w3.org/2000/svg">
  <path d="M16.5569 4.66022C15.2962 3.39943 13.7749 2.76923 11.9932 2.76923C10.2113 2.76923 8.69011 3.39956 7.42946 4.66022C6.16884 5.92084 5.53846 7.44206 5.53846 9.22391C5.53846 10.1401 5.67712 10.8922 5.95437 11.4806L10.5559 21.2385C10.682 21.5156 10.8774 21.7341 11.1422 21.8937C11.4069 22.0534 11.6906 22.1334 11.9933 22.1334C12.2958 22.1334 12.5795 22.0534 12.8442 21.8937C13.109 21.7341 13.3085 21.5156 13.443 21.2385L18.0316 11.4806C18.309 10.8922 18.4477 10.1401 18.4477 9.22391C18.448 7.44206 17.8177 5.92102 16.5569 4.66022ZM14.2748 11.5058C13.6446 12.136 12.8841 12.4512 11.9932 12.4512C11.1022 12.4512 10.3417 12.136 9.71123 11.5058C9.0809 10.8753 8.76567 10.1148 8.76567 9.22386C8.76567 8.33301 9.0809 7.57233 9.71123 6.94209C10.3417 6.31176 11.1023 5.99652 11.9932 5.99652C12.8841 5.99652 13.6446 6.31176 14.2748 6.94209C14.9052 7.57228 15.2204 8.33301 15.2204 9.22386C15.2204 10.1147 14.9052 10.8752 14.2748 11.5058Z"/>
</svg>

<svg xmlns="http://www.w3.org/2000/svg" fill="currentColor" viewBox="0 0 24 24">
  <path d="M16.557 4.66c-1.26-1.26-2.782-1.89-4.564-1.89S8.69 3.4 7.43 4.66C6.17 5.92 5.54 7.442 5.54 9.224c0 .916.138 1.668.415 2.257l4.602 9.757c.126.278.321.496.586.656.265.16.549.24.851.24.303 0 .586-.08.851-.24a1.53 1.53 0 0 0 .599-.655l4.589-9.758c.277-.589.416-1.34.416-2.257 0-1.782-.63-3.303-1.891-4.564Zm-2.282 6.846a3.11 3.11 0 0 1-2.282.945 3.11 3.11 0 0 1-2.282-.945 3.11 3.11 0 0 1-.945-2.282c0-.891.315-1.652.945-2.282a3.11 3.11 0 0 1 2.282-.945c.891 0 1.652.315 2.282.945.63.63.945 1.391.945 2.282a3.11 3.11 0 0 1-.945 2.282Z"/>
</svg>
